X: 9935
T: Devanny's Goat
R: reel
M: 4/4
K: Dmajor
"D"DF F2 AFAB|"G"d2 fe dBAF|"D"DFAF BFAF|"A"E2 ED EGFE|
"D"DFAB AFAB|"G"defe dBAf|"D"efdB AF F2|"A"AFEG "D"FD D2:|
|:"D"faab afdf|"G"a2 fd edBd|"D"ABde fd d2|"A"e2 fd edBd|
"D"ABde fd d2|"G"edfd edBd|"D"A2 dB AF F2|"A"AFEG "D"FD D2:|

